X: 21162
M: 2/4
L: 1/16
K: Dmix
V: 1 name="2"
fg |\
a2bg e2ef | gage efed | cdcB A2fg | a2bg e2ef |\
gage d2ef | gfed cdec | d4 "^D.C."d2 |]


